apps/scalable/utilities-system-monitor.svg

<?xml version="1.0" encoding="UTF-8" standalone="no"?>
<!-- Created with Inkscape (http://www.inkscape.org/) -->

<svg
   xmlns:dc="http://purl.org/dc/elements/1.1/"
   xmlns:cc="http://creativecommons.org/ns#"
   xmlns:rdf="http://www.w3.org/1999/02/22-rdf-syntax-ns#"
   xmlns:svg="http://www.w3.org/2000/svg"
   xmlns="http://www.w3.org/2000/svg"
   xmlns:xlink="http://www.w3.org/1999/xlink"
   xmlns:sodipodi="http://sodipodi.sourceforge.net/DTD/sodipodi-0.dtd"
   xmlns:inkscape="http://www.inkscape.org/namespaces/inkscape"
   id="svg4813"
   width="64"
   height="64"
   version="1.1"
   sodipodi:docname="utilities-system-monitor.svg"
   inkscape:version="0.92.3 (2405546, 2018-03-11)">
  <sodipodi:namedview
     pagecolor="#ffffff"
     bordercolor="#666666"
     borderopacity="1"
     objecttolerance="10"
     gridtolerance="10"
     guidetolerance="10"
     inkscape:pageopacity="0"
     inkscape:pageshadow="2"
     inkscape:window-width="1366"
     inkscape:window-height="715"
     id="namedview58"
     showgrid="false"
     inkscape:zoom="2.9112912"
     inkscape:cx="32"
     inkscape:cy="32"
     inkscape:window-x="0"
     inkscape:window-y="27"
     inkscape:window-maximized="1"
     inkscape:current-layer="svg4813" />
  <metadata
     id="metadata69">
    <rdf:RDF>
      <cc:Work
         rdf:about="">
        <dc:format>image/svg+xml</dc:format>
        <dc:type
           rdf:resource="http://purl.org/dc/dcmitype/StillImage" />
        <dc:title></dc:title>
      </cc:Work>
    </rdf:RDF>
  </metadata>
  <defs
     id="defs4815">
    <linearGradient
       id="linearGradient3680-6">
      <stop
         id="stop3682-4"
         style="stop-color:#dcdcdc"
         offset="0" />
      <stop
         id="stop3684-8"
         style="stop-color:#fff"
         offset="1" />
    </linearGradient>
    <linearGradient
       id="linearGradient5060-6-6-5">
      <stop
         id="stop5062-3-0-3"
         offset="0" />
      <stop
         id="stop5064-1-4-9"
         style="stop-opacity:0"
         offset="1" />
    </linearGradient>
    <linearGradient
       id="linearGradient3652"
       x1="16.143"
       x2="16.143"
       y1="4"
       y2="44"
       gradientTransform="matrix(1.2052 0 0 .94879 3.0752 12.229)"
       gradientUnits="userSpaceOnUse">
      <stop
         id="stop2225-6-4-7-2"
         style="stop-color:#fff"
         offset="0" />
      <stop
         id="stop2229-2-5-5-8"
         style="stop-color:#fff;stop-opacity:0"
         offset="1" />
    </linearGradient>
    <linearGradient
       id="linearGradient3655"
       x1="16.626"
       x2="20.055"
       y1="15.298"
       y2="24.628"
       gradientTransform="matrix(1.2626,0,0,1.3398,-58.302,3.0028)"
       gradientUnits="userSpaceOnUse">
      <stop
         id="stop2687-1-9-0-2"
         style="stop-color:#fff"
         offset="0" />
      <stop
         id="stop2689-5-4-3-1"
         style="stop-color:#fff;stop-opacity:0"
         offset="1" />
    </linearGradient>
    <linearGradient
       id="linearGradient3658"
       x1="16"
       x2="16"
       y1="27.045"
       y2="16"
       gradientTransform="matrix(1.3714,0,0,1.3636,-1.7143,-0.81819)"
       gradientUnits="userSpaceOnUse"
       xlink:href="#linearGradient3680-6" />
    <linearGradient
       id="linearGradient3662"
       x1="20"
       x2="20"
       y1="28"
       y2="26"
       gradientTransform="matrix(1.375,0,0,1.5,-0.75001,-3)"
       gradientUnits="userSpaceOnUse"
       xlink:href="#linearGradient3680-6" />
    <linearGradient
       id="linearGradient3666"
       x1="12.579"
       x2="12.213"
       y1="2.9165"
       y2="47.279"
       gradientTransform="matrix(1.2655,0,0,1.2039,-78.3731,7.3166)"
       gradientUnits="userSpaceOnUse">
      <stop
         id="stop2240-1-6-7-0"
         style="stop-color:#fff"
         offset="0" />
      <stop
         id="stop2242-7-3-7-2"
         style="stop-color:#fff;stop-opacity:0"
         offset="1" />
    </linearGradient>
    <linearGradient
       id="linearGradient3669"
       x1="23.071"
       x2="23.071"
       y1="36.047"
       y2="33.296"
       gradientTransform="matrix(1.296,0,0,1.3378,-39.09669,8.2994)"
       gradientUnits="userSpaceOnUse">
      <stop
         id="stop2225-6-4-7"
         style="stop-color:#fff"
         offset="0" />
      <stop
         id="stop2229-2-5-5"
         style="stop-color:#fff;stop-opacity:0"
         offset="1" />
    </linearGradient>
    <radialGradient
       id="radialGradient3672"
       cx="7.4957"
       cy="8.4498"
       r="20"
       gradientTransform="matrix(0,2.2999,-3.8677,-9.7048e-8,-15.319,-1.1584)"
       gradientUnits="userSpaceOnUse">
      <stop
         id="stop3790-0-0"
         style="stop-color:#505050"
         offset="0" />
      <stop
         id="stop3792-0-2"
         style="stop-color:#141414"
         offset="1" />
    </radialGradient>
    <linearGradient
       id="linearGradient3674"
       x1="16.143"
       x2="16.143"
       y1="4"
       y2="44"
       gradientTransform="matrix(1.2565,0,0,1.0001,-78.1556,10.998)"
       gradientUnits="userSpaceOnUse">
      <stop
         id="stop3796-3-0"
         style="stop-color:#323232"
         offset="0" />
      <stop
         id="stop3798-8-6"
         offset="1" />
    </linearGradient>
    <linearGradient
       id="linearGradient3677"
       x1="24"
       x2="24"
       y1="7.96"
       y2="43.865"
       gradientTransform="matrix(1.1777632,0,0,1.1896209,3.7331255,4.0688514)"
       gradientUnits="userSpaceOnUse">
      <stop
         id="stop4324-9-7"
         style="stop-color:#f0f0f0"
         offset="0" />
      <stop
         id="stop2860-4-4"
         style="stop-color:#d7d7d8"
         offset=".085525" />
      <stop
         id="stop2862-5-9"
         style="stop-color:#b2b2b3"
         offset=".92166" />
      <stop
         id="stop4326-1-1"
         style="stop-color:#979798"
         offset="1" />
    </linearGradient>
    <linearGradient
       id="linearGradient3679"
       x1="10.014"
       x2="10.014"
       y1="44.96"
       y2="2.8765"
       gradientTransform="matrix(1.2553,0,0,1.1965,-78.1281,6.2692)"
       gradientUnits="userSpaceOnUse">
      <stop
         id="stop4334-7-6"
         style="stop-color:#595959"
         offset="0" />
      <stop
         id="stop4336-8-0"
         style="stop-color:#b3b3b3"
         offset="1" />
    </linearGradient>
    <radialGradient
       id="radialGradient3682"
       cx="605.71"
       cy="486.65"
       r="117.14"
       gradientTransform="matrix(-.08745 0 0 .032941 63.59 42.589)"
       gradientUnits="userSpaceOnUse"
       xlink:href="#linearGradient5060-6-6-5" />
    <radialGradient
       id="radialGradient3685"
       cx="605.71"
       cy="486.65"
       r="117.14"
       gradientTransform="matrix(.08745 0 0 .032941 .41038 42.589)"
       gradientUnits="userSpaceOnUse"
       xlink:href="#linearGradient5060-6-6-5" />
    <linearGradient
       id="linearGradient3688"
       x1="302.86"
       x2="302.86"
       y1="366.65"
       y2="609.51"
       gradientTransform="matrix(0.08745,0,0,0.032941,0.39317,42.589)"
       gradientUnits="userSpaceOnUse">
      <stop
         id="stop5050-5-6-4"
         style="stop-opacity:0"
         offset="0" />
      <stop
         id="stop5056-9-0-1"
         offset=".5" />
      <stop
         id="stop5052-6-9-5"
         style="stop-opacity:0"
         offset="1" />
    </linearGradient>
    <linearGradient
       id="linearGradient3658-3"
       x1="16"
       x2="16"
       y1="27.045"
       y2="16"
       gradientTransform="matrix(1.5788671,0,0,1.5698871,-7.5537705,-9.6715947)"
       gradientUnits="userSpaceOnUse"
       xlink:href="#linearGradient3680-6" />
    <linearGradient
       id="linearGradient3662-5"
       x1="20"
       x2="20"
       y1="28"
       y2="26"
       gradientTransform="matrix(1.5830117,0,0,1.7269218,-6.4436014,-12.18347)"
       gradientUnits="userSpaceOnUse"
       xlink:href="#linearGradient3680-6" />
    <linearGradient
       inkscape:collect="always"
       xlink:href="#linearGradient872"
       id="linearGradient874"
       x1="-72.5"
       y1="15.5"
       x2="-72.5"
       y2="54.5"
       gradientUnits="userSpaceOnUse"
       gradientTransform="matrix(1.1586069,0,0,1.1586069,87.613132,-8.5512397)" />
    <linearGradient
       inkscape:collect="always"
       id="linearGradient872">
      <stop
         style="stop-color:#000000;stop-opacity:1"
         offset="0"
         id="stop868" />
      <stop
         style="stop-color:#4d4d4d;stop-opacity:1"
         offset="1"
         id="stop870" />
    </linearGradient>
    <filter
       id="filter3499-9"
       x="-0.069844998"
       y="-0.15346999"
       width="1.1397001"
       height="1.3069"
       style="color-interpolation-filters:sRGB">
      <feGaussianBlur
         id="feGaussianBlur3501-2"
         stdDeviation="1.0231264" />
    </filter>
  </defs>
  <rect
     id="rect1314-3-3"
     x="3.6141319"
     y="9.4071665"
     width="56.77174"
     height="45.185661"
     rx="0"
     ry="0"
     style="color:#000000;fill:url(#linearGradient874);fill-opacity:1;stroke:#1a1a1a;stroke-width:1.50000012;stroke-linecap:round;stroke-linejoin:round;stroke-miterlimit:4;stroke-dasharray:none;stroke-opacity:1" />
  <path
     inkscape:connector-curvature="0"
     style="opacity:0.1;fill:none;stroke:#b9ffeb;stroke-width:0.9999997px;stroke-linecap:square"
     d="M 5.1545167,13.597949 H 58.827175"
     id="path2233" />
  <path
     inkscape:connector-curvature="0"
     style="opacity:0.1;fill:none;stroke:#b9ffeb;stroke-width:0.9999997px;stroke-linecap:square"
     d="M 5.1545167,19.731965 H 58.827175"
     id="path2235" />
  <path
     inkscape:connector-curvature="0"
     style="opacity:0.1;fill:none;stroke:#b9ffeb;stroke-width:0.9999997px;stroke-linecap:square"
     d="M 5.1545167,25.86598 H 58.827175"
     id="path2237" />
  <path
     inkscape:connector-curvature="0"
     style="opacity:0.1;fill:none;stroke:#b9ffeb;stroke-width:0.9999997px;stroke-linecap:square"
     d="M 5.1545167,32.000002 H 58.827175"
     id="path2239" />
  <path
     inkscape:connector-curvature="0"
     style="opacity:0.1;fill:none;stroke:#b9ffeb;stroke-width:0.9999997px;stroke-linecap:square"
     d="M 5.1545167,38.13402 H 58.827175"
     id="path2241" />
  <path
     inkscape:connector-curvature="0"
     style="opacity:0.1;fill:none;stroke:#b9ffeb;stroke-width:0.9999997px;stroke-linecap:square"
     d="M 5.1545167,44.268035 H 58.827175"
     id="path2243" />
  <path
     inkscape:connector-curvature="0"
     style="opacity:0.1;fill:none;stroke:#b9ffeb;stroke-width:0.9999997px;stroke-linecap:square"
     d="M 5.1545167,50.402053 H 58.827175"
     id="path2245" />
  <path
     inkscape:connector-curvature="0"
     style="fill:none;stroke:#00ff00;stroke-width:1.3042022;stroke-linecap:round;stroke-linejoin:round;filter:url(#filter3499-9)"
     d="M 6.9276,27.5 H 13.5 l 2,-10 4,15 3,-9 3,6 3,-2 h 12.584"
     id="path3497"
     transform="matrix(1.5335042,0,0,1.5335042,-4.8132624,-7.104362)" />
  <path
     inkscape:connector-curvature="0"
     style="fill:none;stroke:#00ff00;stroke-width:0.9999997px;stroke-linecap:round;stroke-linejoin:round"
     d="m 5.810244,35.067008 h 10.078803 l 3.067009,-15.335043 6.134016,23.002566 4.600516,-13.801538 4.600512,9.201027 4.600511,-3.067012 H 58.18923"
     id="path3477" />
</svg>

<?xml version="1.0" encoding="UTF-8" standalone="no"?><!--Created with Inkscape (http://www.inkscape.org/)--><svg xmlns:dc="http://purl.org/dc/elements/1.1/" xmlns:cc="http://creativecommons.org/ns#" xmlns:rdf="http://www.w3.org/1999/02/22-rdf-syntax-ns#" xmlns="http://www.w3.org/2000/svg" xmlns:xlink="http://www.w3.org/1999/xlink" width="64" height="64"><metadata><rdf:RDF><cc:Work><dc:format>image/svg+xml</dc:format><dc:type rdf:resource="http://purl.org/dc/dcmitype/StillImage"/><dc:title/></cc:Work></rdf:RDF></metadata><defs><linearGradient id="a"><stop offset="0" stop-color="#dcdcdc"/><stop offset="1" stop-color="#fff"/></linearGradient><linearGradient id="b"><stop offset="0"/><stop offset="1" stop-opacity="0"/></linearGradient><linearGradient xlink:href="#c" id="d" x1="-72.5" y1="15.5" x2="-72.5" y2="54.5" gradientUnits="userSpaceOnUse" gradientTransform="matrix(1.1586 0 0 1.1586 87.61 -8.55)"/><linearGradient id="c"><stop offset="0"/><stop offset="1" stop-color="#4d4d4d"/></linearGradient><filter id="e" x="-.07" y="-.15" width="1.14" height="1.31" color-interpolation-filters="sRGB"><feGaussianBlur stdDeviation="1.02"/></filter></defs><rect x="3.61" y="9.41" width="56.77" height="45.19" rx="0" ry="0" color="#000" fill="url(#d)" stroke="#1a1a1a" stroke-width="1.5" stroke-linecap="round" stroke-linejoin="round"/><path d="M5.15 13.6h53.68M5.15 19.73h53.68M5.15 25.87h53.68M5.15 32h53.68M5.15 38.13h53.68M5.15 44.27h53.68M5.15 50.4h53.68" opacity=".1" fill="none" stroke="#b9ffeb" stroke-linecap="square"/><path d="M6.93 27.5h6.57l2-10 4 15 3-9 3 6 3-2h12.58" transform="matrix(1.5335 0 0 1.5335 -4.81 -7.1)" fill="none" stroke="#0f0" stroke-width="1.3" stroke-linecap="round" stroke-linejoin="round" filter="url(#e)"/><path d="M5.81 35.07h10.08l3.07-15.34 6.13 23 4.6-13.8 4.6 9.2 4.6-3.06h19.3" fill="none" stroke="#0f0" stroke-linecap="round" stroke-linejoin="round"/></svg>
